weblate/static/state/source.svg

<svg xmlns="http://www.w3.org/2000/svg" xmlns:xlink="http://www.w3.org/1999/xlink" width="14" height="14" version="1.1" viewBox="0 0 14 14"><title>1670CCC3-4BFD-4433-B635-ED5FFB6D92D5</title><desc>Created with sketchtool.</desc><g id="App-UI" fill="none" fill-rule="evenodd" stroke="none" stroke-width="1"><g id="Overview" fill="#2A3744" fill-rule="nonzero" transform="translate(-221.000000, -529.000000)"><path id="Code" d="M225.828179,537.621206 C226.540796,538.169692 227,539.031219 227,540 C227,541.656854 225.656854,543 224,543 C222.343146,543 221,541.656854 221,540 C221,538.693781 221.834808,537.582542 223,537.170706 L223,534.829294 C221.834808,534.417458 221,533.306219 221,532 C221,530.343146 222.343146,529 224,529 C225.656854,529 227,530.343146 227,532 C227,533.306219 226.165192,534.417458 225,534.829294 L225,535.798687 C225.219752,535.69158 225.453118,535.605944 225.697749,535.544786 L229.463882,534.603253 C229.170091,534.13949 229,533.589608 229,533 C229,531.343146 230.343146,530 232,530 C233.656854,530 235,531.343146 235,533 C235,534.656854 233.656854,536 232,536 C231.808004,536 231.620221,535.981964 231.438253,535.947494 C231.099624,536.177363 230.717139,536.351492 230.302251,536.455214 L226.182821,537.485071 C226.057291,537.516454 225.938527,537.562536 225.828179,537.621206 L225.828179,537.621206 Z M224,541 C224.552285,541 225,540.552285 225,540 C225,539.447715 224.552285,539 224,539 C223.447715,539 223,539.447715 223,540 C223,540.552285 223.447715,541 224,541 Z M224,533 C224.552285,533 225,532.552285 225,532 C225,531.447715 224.552285,531 224,531 C223.447715,531 223,531.447715 223,532 C223,532.552285 223.447715,533 224,533 Z M232,534 C232.552285,534 233,533.552285 233,533 C233,532.447715 232.552285,532 232,532 C231.447715,532 231,532.447715 231,533 C231,533.552285 231.447715,534 232,534 Z"/></g></g></svg>

<svg width="14" height="14" version="1.1" viewBox="0 0 14 14" xmlns="http://www.w3.org/2000/svg"><g fill="none" fill-rule="evenodd"><g transform="translate(-221 -529)" fill="#2A3744" fill-rule="nonzero"><path d="m225.83 537.62c0.71262 0.54849 1.1718 1.41 1.1718 2.3788 0 1.6569-1.3431 3-3 3s-3-1.3431-3-3c0-1.3062 0.83481-2.4175 2-2.8293v-2.3414c-1.1652-0.41184-2-1.5231-2-2.8293 0-1.6569 1.3431-3 3-3s3 1.3431 3 3c0 1.3062-0.83481 2.4175-2 2.8293v0.96939c0.21975-0.10711 0.45312-0.19274 0.69775-0.2539l3.7661-0.94153c-0.29379-0.46376-0.46388-1.0136-0.46388-1.6033 0-1.6569 1.3431-3 3-3s3 1.3431 3 3-1.3431 3-3 3c-0.192 0-0.37978-0.018036-0.56175-0.052506-0.33863 0.22987-0.72111 0.404-1.136 0.50772l-4.1194 1.0299c-0.12553 0.031383-0.24429 0.077465-0.35464 0.13614zm-1.8282 3.3788c0.55228 0 1-0.44772 1-1s-0.44772-1-1-1-1 0.44772-1 1 0.44772 1 1 1zm0-8c0.55228 0 1-0.44772 1-1s-0.44772-1-1-1-1 0.44772-1 1 0.44772 1 1 1zm8 1c0.55228 0 1-0.44772 1-1s-0.44772-1-1-1-1 0.44772-1 1 0.44772 1 1 1z"/></g></g></svg>
